Sources/FrostedUI/Resources/Icons.xcassets/exclamationTriangle24.imageset/exclamation-triangle-24.svg

<svg width="24" height="24" viewBox="0 0 24 24" fill="none" xmlns="http://www.w3.org/2000/svg" data-fui-icon="true">
  <path
    fill-rule="evenodd"
    clip-rule="evenodd"
    d="M12 8C12.4142 8 12.75 8.33579 12.75 8.75V14.25C12.75 14.6642 12.4142 15 12 15C11.5858 15 11.25 14.6642 11.25 14.25V8.75C11.25 8.33579 11.5858 8 12 8Z"
    fill="currentColor"
  />
  <path
    d="M13 18C13 18.5523 12.5523 19 12 19C11.4477 19 11 18.5523 11 18C11 17.4477 11.4477 17 12 17C12.5523 17 13 17.4477 13 18Z"
    fill="currentColor"
  />
  <path
    fill-rule="evenodd"
    clip-rule="evenodd"
    d="M12 2.5C11.5756 2.5 11.1841 2.72866 10.9756 3.09833L1.66342 19.6104C1.55629 19.8004 1.5 20.0148 1.5 20.2329C1.5 20.9327 2.06732 21.5 2.76713 21.5H21.2329C21.9327 21.5 22.5 20.9327 22.5 20.2329C22.5 20.0148 22.4437 19.8004 22.3366 19.6104L13.0244 3.09833C12.8159 2.72866 12.4244 2.5 12 2.5ZM9.66909 2.36149C10.1435 1.52032 11.0343 1 12 1C12.9657 1 13.8565 1.52032 14.3309 2.36149L23.6431 18.8736C23.8771 19.2884 24 19.7566 24 20.2329C24 21.7611 22.7611 23 21.2329 23H2.76713C1.23889 23 0 21.7611 0 20.2329C0 19.7566 0.122923 19.2884 0.356877 18.8736L9.66909 2.36149Z"
    fill="currentColor"
  />
</svg>

<svg xmlns="http://www.w3.org/2000/svg" width="24" height="24" fill="none" data-fui-icon="true" viewBox="0 0 24 24"><path fill="currentColor" fill-rule="evenodd" d="M12 8a.75.75 0 0 1 .75.75v5.5a.75.75 0 0 1-1.5 0v-5.5A.75.75 0 0 1 12 8" clip-rule="evenodd"/><path fill="currentColor" d="M13 18a1 1 0 1 1-2 0 1 1 0 0 1 2 0"/><path fill="currentColor" fill-rule="evenodd" d="M12 2.5c-.424 0-.816.229-1.024.598L1.663 19.61a1.267 1.267 0 0 0 1.104 1.89h18.466a1.267 1.267 0 0 0 1.104-1.89L13.024 3.098c-.208-.37-.6-.598-1.024-.598m-2.33-.139a2.676 2.676 0 0 1 4.66 0l9.313 16.513A2.766 2.766 0 0 1 21.233 23H2.767a2.767 2.767 0 0 1-2.41-4.126z" clip-rule="evenodd"/></svg>
